X: 12426
T: Fare Well
R: jig
M: 6/8
K: Amajor
|:ded gzg|BcB dzd|G3 AGA|BGB ABc|
ded gzg|BcB dzd|G3 AGA|G3 B2c:|
|:ded cAc|BcB AGA|G3 BAG|dcB B2A|
ded cAc|BcB AGA|G3 BAG|dBG d3|
ded cAc|BcB AGA|G3 BAG|dcB B2A|
ded gzg|BcB dzd|G3 AGA|G3 B2c:|
|:efe aza|cdc eze|A3 BAB|cAc Bcd|
efe aza|cdc eze|A3 BAB|A3 c2d:|
|:efe dBd|cdc BAB|A3 cBA|edc c2B|
efe dBd|cdc BAB|A3 cBA|ecA e3|
efe dBd|cdc BAB|A3 cBA|edc c2B|
efe aza|cdc eze|A3 BAB|A3 c2d:|

